src/lib/runemarks/svg/factions-chaos-bladeborn-garreks-reavers.svg

<svg xmlns="http://www.w3.org/2000/svg" width="300" height="300" viewBox="0 0 300 300"><title>factions-chaos-bladeborn-garreks-reavers</title><path d="M61.706 17.261c4.849.287 10.511.43 16.245.43s11.372-.168 17.033-.478l-.789.025c1.027-.12 2.174-.168 3.368-.168 12.47 0 23.316 7.023 28.763 17.32l.096.191c5.136 7.262 10.655 13.664 16.698 19.47l.048.048c6.594 6.761 11.467 6.402 16.389-2.174 7.478-11.347 16.603-20.879 27.21-28.571l.311-.214c5.375-4.276 12.279-6.857 19.78-6.857 2.222 0 4.372.239 6.473.645l-.216-.048c2.604.071 5.686.12 8.791.12 10.464 0 20.831-.43 31.08-1.314l-1.338.096c12.661 0 25.441 1.385 38.007 2.771a8.82 8.82 0 0 1 5.638 5.136l.023.071c4.682 15.432 0 31.032 0 46.56 0 5.805-16.412 12.757-25.537 11.968-4.587-.239-8.886-1.123-12.877-2.604l.287.096c-3.536-1.553-7.692-2.484-12.04-2.484-3.775 0-7.382.669-10.726 1.911l.216-.071c-3.273 1.075-7.071 1.72-11.013 1.72-4.444 0-8.648-.789-12.589-2.222l.262.096c-1.959-.741-4.253-1.146-6.618-1.146-5.805 0-11.037 2.556-14.62 6.618l-.023.023c-8.695 6.498-8.695 11.276-1.051 19.757 11.276 13.259 22.814 22.623 42.785 15.6 8.695-3.202 21.715 3.989 31.247 1.146 11.467-3.368 20.927 2.245 31.343 1.84 1.648 0 5.303 4.61 4.945 5.208-4.778 7.883 0 15.097.502 22.623.12.693.191 1.481.191 2.317 0 6.809-4.706 12.493-11.037 14.071l-.096.023c-6.188 2.079-13.307 3.273-20.736 3.273-6.164-.598-13.521-6.857-16.58 1.481-1.385 3.727 4.419 11.181 8.695 15.695 8.695 9.532 17.344 18.204 26.637 27.305s16.842 21.238 10.416 36.24v2.079c-1.194 9.532-2.341 19.063-3.584 28.62l-31.939 2.174c-7.287 0-10.416-3.273-10.32-10.416v-32.513c0-4.682-.86-8.672-6.857-8.672s-8.695 3.13-8.695 9.198v30.267c0 10.057-4.18 12.757-13.02 12.398s-17.344 0-26.039 0c-7.287 0-10.487-3.273-10.32-10.487s0-15.886 0-23.77c.023-.645.023-1.433.023-2.197a96 96 0 0 0-.669-11.156l.048.43c0-1.553-3.034-4.085-4.085-3.823s-5.805 2.509-5.9 4.061c-.598 11.515-.955 23.077-.598 34.687 0 9.532-3.989 12.493-12.925 12.493-38.796 0-36.956 1.648-36.526-34.066v-15.097c0-5.04-3.487-3.918-6.521-4.515-4.324-.86-4.778.932-4.683 4.253v24.82c0 4.945-.621 9.698-1.84 14.262l.096-.382c-2.102 6.259-5.566 12.064-13.975 10.655-.621-.071-1.362-.096-2.126-.096s-1.481.048-2.222.12h.096c-33.588 0-29.073 3.13-29.432-28.356v-15.193c0-5.065-1.553-8.242-7.358-8.242s-8.074 2.174-8.074 7.549v32.418c0 8.051-3.034 11.706-11.371 11.872-42.093.43-37.936 1.051-38.198-34.688-.096-.932-.12-2.007-.12-3.13a36 36 0 0 1 8.242-22.957l-.048.071c9.102-10.678 15.097-23.937 28.118-31.486a28.2 28.2 0 0 0 7.573-9.891l.071-.168c1.911-3.225 3.296-6.666 4.945-10.057-3.487-1.146-7.644-2.031-11.897-2.58l-.334-.023c-6.761 0-13.712 1.481-20.401.86-8.695-.693-14.31-4.253-13.187-14.644.502-4.611-2.341-9.436-2.341-14.214 0-15.957 1.84-18.204 17.344-19.255 8.695-.502 18.131 0 27.258 0 1.672.168 3.584.263 5.543.263 6.33 0 12.423-.956 18.156-2.699l-.43.12c5.996-2.771 8.074-3.368 13.88.693a12.56 12.56 0 0 0 7.406 2.436c4.754 0 8.911-2.652 11.037-6.521l.023-.071c3.823-5.638 11.132-8.672 16.15-13.689 2.509-1.696 4.133-4.515 4.133-7.717a9.24 9.24 0 0 0-5.543-8.481l-.071-.023c-9.245-6.354-20.64-10.105-32.967-10.105-4.587 0-9.054.525-13.354 1.529l.382-.071c-5.638 1.792-12.136 2.795-18.873 2.795s-13.211-1.027-19.35-2.914l.478.12c-2.914-.669-6.282-1.075-9.698-1.075-1.099 0-2.197.048-3.273.12h.143C2.438 75.676.526 73.956.001 57.998V38.505c0-17.344 6.689-22.648 23.794-21.333 12.829.956 26.039 1.481 38.701 2.174l-.789-2.079zm71.189 156.092v-1.051l48.448.598c2.317-.216 4.444-.573 6.521-1.123l-.287.071c-1.146-2.054-2.222-3.798-3.416-5.47l.12.168c-7.716-9.27-15.623-18.371-23.34-27.545s-10.846-9.198-19.279 0c-5.208 5.805-11.037 11.108-16.412 17.32s-8.695 10.583-13.617 15.959l21.261 1.075z"/></svg>

<?xml version="1.0" encoding="UTF-8" standalone="no"?>
<!DOCTYPE svg PUBLIC "-//W3C//DTD SVG 1.1//EN" "http://www.w3.org/Graphics/SVG/1.1/DTD/svg11.dtd">
<svg width="100%" height="100%" viewBox="0 0 300 300" version="1.1" xmlns="http://www.w3.org/2000/svg" xmlns:xlink="http://www.w3.org/1999/xlink" xml:space="preserve" xmlns:serif="http://www.serif.com/" style="fill-rule:evenodd;clip-rule:evenodd;stroke-linejoin:round;stroke-miterlimit:2;">
    <path d="M61.706,17.261C66.555,17.548 72.217,17.691 77.951,17.691C83.685,17.691 89.323,17.523 94.984,17.213L94.195,17.238C95.222,17.118 96.369,17.07 97.563,17.07C110.033,17.07 120.879,24.093 126.326,34.39L126.422,34.581C131.558,41.843 137.077,48.245 143.12,54.051L143.168,54.099C149.762,60.86 154.635,60.501 159.557,51.925C167.035,40.578 176.16,31.046 186.767,23.354L187.078,23.14C192.453,18.864 199.357,16.283 206.858,16.283C209.08,16.283 211.23,16.522 213.331,16.928L213.115,16.88C215.719,16.951 218.801,17 221.906,17C232.37,17 242.737,16.57 252.986,15.686L251.648,15.782C264.309,15.782 277.089,17.167 289.655,18.553C292.214,19.321 294.29,21.213 295.293,23.689L295.316,23.76C299.998,39.192 295.316,54.792 295.316,70.32C295.316,76.125 278.904,83.077 269.779,82.288C265.192,82.049 260.893,81.165 256.902,79.684L257.189,79.78C253.653,78.227 249.497,77.296 245.149,77.296C241.374,77.296 237.767,77.965 234.423,79.207L234.639,79.136C231.366,80.211 227.568,80.856 223.626,80.856C219.182,80.856 214.978,80.067 211.037,78.634L211.299,78.73C209.34,77.989 207.046,77.584 204.681,77.584C198.876,77.584 193.644,80.14 190.061,84.202L190.038,84.225C181.343,90.723 181.343,95.501 188.987,103.982C200.263,117.241 211.801,126.605 231.772,119.582C240.467,116.38 253.487,123.571 263.019,120.728C274.486,117.36 283.946,122.973 294.362,122.568C296.01,122.568 299.665,127.178 299.307,127.776C294.529,135.659 299.307,142.873 299.809,150.399C299.929,151.092 300,151.88 300,152.716C300,159.525 295.294,165.209 288.963,166.787L288.867,166.81C282.679,168.889 275.56,170.083 268.131,170.083C261.967,169.485 254.61,163.226 251.551,171.564C250.166,175.291 255.97,182.745 260.246,187.259C268.941,196.791 277.59,205.463 286.883,214.564C296.176,223.665 303.725,235.802 297.299,250.804L297.299,252.883C296.105,262.415 294.958,271.946 293.715,281.503L261.776,283.677C254.489,283.677 251.36,280.404 251.456,273.261L251.456,240.748C251.456,236.066 250.596,232.076 244.599,232.076C238.602,232.076 235.904,235.206 235.904,241.274L235.904,271.541C235.904,281.598 231.724,284.298 222.884,283.939C214.044,283.58 205.54,283.939 196.845,283.939C189.558,283.939 186.358,280.666 186.525,273.452C186.692,266.238 186.525,257.566 186.525,249.682C186.548,249.037 186.548,248.249 186.548,247.485C186.542,243.756 186.318,240.032 185.879,236.329L185.927,236.759C185.927,235.206 182.893,232.674 181.842,232.936C180.791,233.198 176.037,235.445 175.942,236.997C175.344,248.512 174.987,260.074 175.344,271.684C175.344,281.216 171.355,284.177 162.419,284.177C123.623,284.177 125.463,285.825 125.893,250.111L125.893,235.014C125.893,229.974 122.406,231.096 119.372,230.499C115.048,229.639 114.594,231.431 114.689,234.752L114.689,259.572C114.689,264.517 114.068,269.27 112.849,273.834L112.945,273.452C110.843,279.711 107.379,285.516 98.97,284.107C98.349,284.036 97.608,284.011 96.844,284.011C96.08,284.011 95.363,284.059 94.622,284.131L94.718,284.131C61.13,284.131 65.645,287.261 65.286,255.775L65.286,240.582C65.286,235.517 63.733,232.34 57.928,232.34C52.123,232.34 49.854,234.514 49.854,239.889L49.854,272.307C49.854,280.358 46.82,284.013 38.483,284.179C-3.61,284.609 0.547,285.23 0.285,249.491C0.189,248.559 0.165,247.484 0.165,246.361C0.157,237.985 3.073,229.863 8.407,223.404L8.359,223.475C17.461,212.797 23.456,199.538 36.477,191.989C39.707,189.298 42.295,185.918 44.05,182.098L44.121,181.93C46.032,178.705 47.417,175.264 49.066,171.873C45.579,170.727 41.422,169.842 37.169,169.293L36.835,169.27C30.074,169.27 23.123,170.751 16.434,170.13C7.739,169.437 2.124,165.877 3.247,155.486C3.749,150.875 0.906,146.05 0.906,141.272C0.906,125.315 2.746,123.068 18.25,122.017C26.945,121.515 36.381,122.017 45.508,122.017C47.18,122.185 49.092,122.28 51.051,122.28C57.381,122.28 63.474,121.324 69.207,119.581L68.777,119.701C74.773,116.93 76.851,116.333 82.657,120.394C84.804,121.971 87.399,122.824 90.063,122.83C94.817,122.83 98.974,120.178 101.1,116.309L101.123,116.238C104.946,110.6 112.255,107.566 117.273,102.549C119.782,100.853 121.406,98.034 121.406,94.832C121.411,91.161 119.228,87.82 115.863,86.351L115.792,86.328C106.547,79.974 95.152,76.223 82.825,76.223C78.238,76.223 73.771,76.748 69.471,77.752L69.853,77.681C64.215,79.473 57.717,80.476 50.98,80.476C44.243,80.476 37.769,79.449 31.63,77.562L32.108,77.682C29.194,77.013 25.826,76.607 22.41,76.607C21.311,76.607 20.213,76.655 19.137,76.727L19.28,76.727C2.438,75.676 0.526,73.956 0.001,57.998L0.001,38.505C0.001,21.161 6.69,15.857 23.795,17.172C36.624,18.128 49.834,18.653 62.496,19.346L61.707,17.267L61.706,17.261ZM132.895,173.353L132.895,172.302L181.343,172.9C183.66,172.684 185.787,172.327 187.864,171.777L187.577,171.848C186.431,169.794 185.355,168.05 184.161,166.378L184.281,166.546C176.565,157.276 168.658,148.175 160.941,139.001C153.224,129.827 150.095,129.803 141.662,139.001C136.454,144.806 130.625,150.109 125.25,156.321C119.875,162.533 116.555,166.904 111.633,172.28L132.894,173.355L132.895,173.353Z" style="fill-rule:nonzero;"/>
</svg>
